X:53
T:Antigua Billey. Ru1.053
%%VWML:RutherfordVol1-2248-p27-0p27
Z:Transcription by Village Music Project, Steve Mansfield July 2015
F:http://www.village-music-project.org.uk/
F:http://www.vwml.org/record/RutherfordVol1/2248/p27
M:9/8
Q:3/8=110
K:G
G2c B2G (B/c/d)B|G2c B2G (B/c/d)B|A2A F2F D2D|F2A A2D (F/G/AF) :|
|: G2g g2G (B/c/dB)|G2g g2e (f/g/a)f|gfe dcB cde|F2F D2D (F/G/AF) :|
|: G3 BGB (A/B/cA)|G3 BGB (A/B/cA)|G3 BGB (A/B/cA)|(B/c/dB) (c/d/ec) gdB :|
|:G2g gdB dBG|G2g gdB def|g3 gdB gdB|dBG D2D (F/G/AF) |]
W:
W: Foot it to your Partner clap Hands three times & cast off .|  The
W: same up again :|  Cross over half Figure .|  Lead thro' the 3d. Cu.
W: and cast up .|. Into the 2d. Cus. place :||:  Foot it Corners & turn
W: your Partner .|| Foot it the other Corners & turn your Partner :||  Lead
W: up thro the 2d. Cu. & cast off .||.  Right Hands & Left with the Top Cu. :|
|:
T:Pretty Bell. Ru1.054
L:1/8
B:RUTHERFORD Complete Collection of 200 Country Dances Vol.1; London: David & John Rutherford 1756.
Z:vmp.Mike Hicken 2015 www.village-music-project.org.uk
M:C|
Q:1/2=80
K:D
d2B2 AFED|EFGA B3c|d2B2 AFGb|geAc d2D2 :|
|: d/e/f/g/ a2 ce g2|d/e/f/g/ a2F2E2|d/e/f/g/ a2 cegb|geAc d2D2 |]
W:
W: Cast off one Cu. .|  Cast up
W: again :|  Gallop down and up
W: again and cast off .|.  Right
W: Hasnd and Left :|
|:
